src/lib/assets/logo.svg

<svg viewBox="0 0 500 500" height="100%" width="100%" xmlns="http://www.w3.org/2000/svg" xml:space="preserve" style="fill-rule:evenodd;clip-rule:evenodd;stroke-linejoin:round;stroke-miterlimit:2">
   <path d="M100 40.573C100 29.211 90.789 20 79.427 20H40.573C29.211 20 20 29.211 20 40.573v20.172a1.03 1.03 0 0 0 1.599.856l13.943-9.296c.286-.19.458-.512.458-.856v-5.162C36 40.605 40.605 36 46.287 36h27.426C79.395 36 84 40.605 84 46.287v10.21a1.029 1.029 0 0 0 1.642.826l13.942-10.348c.262-.194.416-.5.416-.826v-5.576Z" style="fill:url(#_Linear1)" transform="rotate(-44.995 220.547 321.097) scale(4.86073)"/>
   <path d="M100 40.573C100 29.211 90.789 20 79.427 20H40.573C29.211 20 20 29.211 20 40.573v20.412a1.028 1.028 0 0 0 1.609.849l13.943-9.528c.28-.191.448-.509.448-.849v-5.17C36 40.605 40.605 36 46.287 36h27.424a10.287 10.287 0 0 1 10.287 10.289l-.003 10.408a1.027 1.027 0 0 0 1.649.821l13.948-10.543c.257-.194.408-.498.408-.82v-5.582Z" style="fill:url(#_Linear2)" transform="rotate(135.005 279.445 262.198) scale(4.86073)"/>
   <path d="M206 124c0-13.798-11.202-25-25-25h-50c-13.798 0-25 11.202-25 25v50c0 13.798 11.202 25 25 25h50c13.798 0 25-11.202 25-25v-50Z" style="fill:#a855f7" transform="matrix(.91663 -.91646 .91646 .91663 -29.548 256.39)"/>
   <defs>
      <linearGradient id="_Linear1" x1="0" y1="0" x2="1" y2="0" gradientUnits="userSpaceOnUse" gradientTransform="matrix(80 0 0 42.6667 20 41.333)">
         <stop offset="0" style="stop-color:#9333ea;stop-opacity:1"/>
         <stop offset=".67" style="stop-color:#9638ec;stop-opacity:1"/>
         <stop offset="1" style="stop-color:#a855f7;stop-opacity:1"/>
      </linearGradient>
      <linearGradient id="_Linear2" x1="0" y1="0" x2="1" y2="0" gradientUnits="userSpaceOnUse" gradientTransform="matrix(80 0 0 42.9333 20 41.467)">
         <stop offset="0" style="stop-color:#9333ea;stop-opacity:1"/>
         <stop offset="1" style="stop-color:#a855f7;stop-opacity:1"/>
      </linearGradient>
   </defs>
</svg>

<?xml version="1.0" encoding="UTF-8" standalone="no"?>
<!DOCTYPE svg PUBLIC "-//W3C//DTD SVG 1.1//EN" "http://www.w3.org/Graphics/SVG/1.1/DTD/svg11.dtd">
<svg width="100%" height="100%" viewBox="0 0 500 500" version="1.1" xmlns="http://www.w3.org/2000/svg" xmlns:xlink="http://www.w3.org/1999/xlink" xml:space="preserve" xmlns:serif="http://www.serif.com/" style="fill-rule:evenodd;clip-rule:evenodd;stroke-linejoin:round;stroke-miterlimit:2;">
    <g transform="matrix(1,0,0,1,-0.34668,-1.42109e-13)">
        <g transform="matrix(3.43738,-3.43673,3.43673,3.43738,-162.1,249.961)">
            <path d="M100,40.573C100,29.211 90.789,20 79.427,20L40.573,20C29.211,20 20,29.211 20,40.573L20,60.745C20,61.124 20.209,61.473 20.543,61.652C20.878,61.831 21.284,61.811 21.599,61.601C25.141,59.239 33.496,53.669 35.542,52.305C35.828,52.115 36,51.793 36,51.449C36,50.525 36,48.537 36,46.287C36,40.605 40.605,36 46.287,36L73.713,36C79.395,36 84,40.605 84,46.287L84,56.497C84,56.886 84.219,57.241 84.566,57.416C84.914,57.591 85.33,57.555 85.642,57.323C89.233,54.658 97.622,48.431 99.584,46.975C99.846,46.781 100,46.475 100,46.149C100,45.23 100,43.163 100,40.573Z" style="fill:url(#_Linear1);"/>
        </g>
        <g transform="matrix(-3.43738,3.43673,-3.43673,-3.43738,662.793,250.039)">
            <path d="M100,40.573C100,29.211 90.789,20 79.427,20L40.573,20C29.211,20 20,29.211 20,40.573L20,60.985C20,61.366 20.211,61.716 20.548,61.894C20.886,62.072 21.294,62.049 21.609,61.834C25.162,59.406 33.525,53.691 35.552,52.306C35.832,52.115 36,51.797 36,51.457L36,46.287C36,40.605 40.605,36 46.287,36L73.711,36C76.44,36 79.056,37.084 80.986,39.014C82.915,40.943 83.998,43.56 83.998,46.289C83.997,50.213 83.996,54.312 83.995,56.697C83.995,57.088 84.216,57.445 84.565,57.618C84.915,57.792 85.333,57.754 85.644,57.518C89.245,54.796 97.644,48.448 99.592,46.975C99.849,46.781 100,46.477 100,46.155L100,40.573Z" style="fill:url(#_Linear2);"/>
        </g>
        <g transform="matrix(0.916634,-0.916462,0.916462,0.916634,-29.2011,256.39)">
            <path d="M206,124C206,110.202 194.798,99 181,99L131,99C117.202,99 106,110.202 106,124L106,174C106,187.798 117.202,199 131,199L181,199C194.798,199 206,187.798 206,174L206,124Z" style="fill:rgb(168,85,247);"/>
        </g>
    </g>
    <defs>
        <linearGradient id="_Linear1" x1="0" y1="0" x2="1" y2="0" gradientUnits="userSpaceOnUse" gradientTransform="matrix(80,0,0,42.6667,20,41.3333)"><stop offset="0" style="stop-color:rgb(147,51,234);stop-opacity:1"/><stop offset="0.67" style="stop-color:rgb(150,56,236);stop-opacity:1"/><stop offset="1" style="stop-color:rgb(168,85,247);stop-opacity:1"/></linearGradient>
        <linearGradient id="_Linear2" x1="0" y1="0" x2="1" y2="0" gradientUnits="userSpaceOnUse" gradientTransform="matrix(80,0,0,42.9333,20,41.4667)"><stop offset="0" style="stop-color:rgb(147,51,234);stop-opacity:1"/><stop offset="1" style="stop-color:rgb(168,85,247);stop-opacity:1"/></linearGradient>
    </defs>
</svg>
